Origami/24x24/apps/8tracks.svg

<svg width="24" height="24" version="1" xmlns="http://www.w3.org/2000/svg">
 <rect transform="matrix(0,-1,-1,0,0,0)" x="-22" y="-22" width="20" height="20" rx="1" ry="1" style="fill:#355681"/>
 <path d="m3 2c-0.554 0-1 0.446-1 1v0.5c0-0.554 0.446-1 1-1h18c0.554 0 1 0.446 1 1v-0.5c0-0.554-0.446-1-1-1h-18z" style="fill:#ffffff;opacity:.1"/>
 <path d="m2 21v0.5c0 0.554 0.446 1 1 1h18c0.554 0 1-0.446 1-1v-0.5c0 0.554-0.446 1-1 1h-18c-0.554 0-1-0.446-1-1z" style="opacity:.2"/>
 <path d="m12 10.5c0-1.5-1-5 3.5-5s4.5 7 0 7h-7c-4.5 0-4.5 7 0 7s3.520713-4 3.5-5" style="fill:none;opacity:.2;stroke-linejoin:round;stroke-width:2;stroke:#000000"/>
 <path d="m12 10c0-1.5-1-5 3.5-5s4.5 7 0 7h-7c-4.5 0-4.5 7 0 7s3.520713-4 3.5-5" style="fill:none;stroke-linejoin:round;stroke-width:2;stroke:#ffffff"/>
</svg>

<svg xmlns="http://www.w3.org/2000/svg" width="24" height="24" version="1">
 <rect style="fill:#355681" width="20" height="20" x="-22" y="-22" rx="1" ry="1" transform="matrix(0,-1,-1,0,0,0)"/>
 <path style="opacity:0.1;fill:#ffffff" d="M 3,2 C 2.446,2 2,2.446 2,3 l 0,0.5 c 0,-0.554 0.446,-1 1,-1 l 18,0 c 0.554,0 1,0.446 1,1 L 22,3 C 22,2.446 21.554,2 21,2 L 3,2 Z"/>
 <path style="opacity:0.2" d="m 2,21 0,0.5 c 0,0.554 0.446,1 1,1 l 18,0 c 0.554,0 1,-0.446 1,-1 L 22,21 c 0,0.554 -0.446,1 -1,1 L 3,22 C 2.446,22 2,21.554 2,21 Z"/>
 <path style="opacity:0.2;fill:none;stroke:#000000;stroke-width:2;stroke-linejoin:round" d="m 12,10.5 c 0,-1.5 -1,-5 3.5,-5 4.5,0 4.5,7 0,7 l -7,0 c -4.5,0 -4.5,7 0,7 4.5,0 3.520713,-4 3.5,-5"/>
 <path style="fill:none;stroke:#ffffff;stroke-width:2;stroke-linejoin:round" d="m 12,10 c 0,-1.5 -1,-5 3.5,-5 4.5,0 4.5,7 0,7 l -7,0 C 4,12 4,19 8.5,19 13,19 12.020713,15 12,14"/>
</svg>
